godot/editor/icons/uint.svg

<svg height="12" viewBox="0 0 16 12" width="16" xmlns="http://www.w3.org/2000/svg"><path d="m5 2v2h2v-2zm2 2v2h-2v-2h-2v4c-.5522847 0-1-.4477153-1-1v-3h-2v3a3 3 0 0 0 0 .0507812 3 3 0 0 0 3 2.9492188h6v-4c.5522847 0 1 .4477153 1 1v3h2v-3c0-1.6568542-1.343146-3-3-3zm5 3c0 1.6568542 1.343146 3 3 3h1v-2h-1c-.552285 0-1-.4477153-1-1v-1h2v-2h-2v-2h-2z" fill="#5abbef"/><path d="m5 10v-6h-2v4a1 1 0 0 1 -1-1v-3h-2v3a3 3 0 0 0 3 3z" fill="#fff" fill-opacity=".39216"/></svg>

<svg height="12" viewBox="0 0 16 12" width="16" xmlns="http://www.w3.org/2000/svg"><path d="M5 2v2h2V2zm2 2v2H5V4H3v4a1 1 0 0 1-1-1V4H0v3a3 3 0 0 0 0 .05A3 3 0 0 0 3 10h6V6a1 1 0 0 1 1 1v3h2V7a3 3 0 0 0-3-3zm5 3a3 3 0 0 0 3 3h1V8h-1a1 1 0 0 1-1-1V6h2V4h-2V2h-2z" fill="#5abbef"/><path d="M5 10V4H3v4a1 1 0 0 1-1-1V4H0v3a3 3 0 0 0 3 3zm2 0h2V6a1 1 0 0 1 1 1v3h2V7a3 3 0 0 0-3-3H7z" fill="#fff" fill-opacity=".4"/></svg>
